icons/svg/bookmark-plus.svg

﻿<?xml version="1.0" encoding="utf-8"?>
<!DOCTYPE svg PUBLIC "-//W3C//DTD SVG 1.1//EN" "http://www.w3.org/Graphics/SVG/1.1/DTD/svg11.dtd">
<svg xmlns="http://www.w3.org/2000/svg" xmlns:xlink="http://www.w3.org/1999/xlink" version="1.1" baseProfile="full" width="24" height="24" viewBox="0 0 24.00 24.00" enable-background="new 0 0 24.00 24.00" xml:space="preserve">
	<path fill="#050708" fill-opacity="1" stroke-width="0.2" stroke-linejoin="round" d="M 16.9994,2.99805C 18.1044,2.99805 18.9994,3.89404 18.9994,4.99805L 18.9994,20.998L 11.9994,17.998L 4.9994,20.998L 5.0104,4.99805C 5.0104,3.89404 5.89541,2.99805 6.9994,2.99805L 16.9994,2.99805 Z M 11,7L 11,9L 9,9L 9,11L 11,11L 11,13L 13,13L 13,11L 15,11L 15,9L 13,9L 13,7L 11,7 Z "/>
</svg>

<svg xmlns="http://www.w3.org/2000/svg" version="1.1" baseProfile="full" width="24" height="24" viewBox="0 0 24.00 24.00" xml:space="preserve"><path fill="#050708" fill-opacity="1" stroke-width=".2" stroke-linejoin="round" d="M17 2.998c1.104 0 2 .896 2 2v16l-7-3-7 3 .01-16c0-1.104.885-2 1.99-2h10zM11 7v2H9v2h2v2h2v-2h2V9h-2V7h-2z"/></svg>
